symbols/web/contactless/materialsymbolsoutlined/contactless_wght500gradN25fill1_48px.svg

<svg xmlns="http://www.w3.org/2000/svg" height="48" width="48"><path d="M16.2 28.65q.45-1.15.775-2.3T17.3 24q0-1.2-.3-2.4t-.85-2.25l-2.7.95q.55.85.775 1.8.225.95.225 1.9 0 1-.275 1.925t-.725 1.825Zm6.75 2.8q.75-1.75 1.1-3.625.35-1.875.35-3.825 0-1.95-.35-3.8-.35-1.85-1.1-3.65l-2.75.95q.7 1.55 1 3.175.3 1.625.3 3.325 0 1.7-.3 3.35-.3 1.65-1 3.15Zm6.45 2.8q1.1-2.45 1.575-5.025.475-2.575.475-5.225 0-2.65-.475-5.225Q30.5 16.2 29.4 13.8l-2.7 1.05q1 2.15 1.45 4.45.45 2.3.45 4.7 0 2.4-.45 4.7-.45 2.3-1.45 4.5Zm-5.4 9.8q-4.1 0-7.775-1.575-3.675-1.575-6.4-4.3-2.725-2.725-4.3-6.4Q3.95 28.1 3.95 24q0-4.15 1.575-7.825t4.3-6.375q2.725-2.7 6.4-4.275Q19.9 3.95 24 3.95q4.15 0 7.825 1.575T38.2 9.8q2.7 2.7 4.275 6.375Q44.05 19.85 44.05 24q0 4.1-1.575 7.775-1.575 3.675-4.275 6.4-2.7 2.725-6.375 4.3Q28.15 44.05 24 44.05Z"/></svg>

<svg xmlns="http://www.w3.org/2000/svg" height="48" width="48"><path d="M24 44.05Q19.75 44.05 16.075 42.5Q12.4 40.95 9.725 38.275Q7.05 35.6 5.5 31.925Q3.95 28.25 3.95 24Q3.95 19.75 5.475 16.1Q7 12.45 9.7 9.75Q12.4 7.05 16.075 5.5Q19.75 3.95 24 3.95Q28.25 3.95 31.9 5.5Q35.55 7.05 38.25 9.75Q40.95 12.45 42.5 16.1Q44.05 19.75 44.05 24Q44.05 28.25 42.5 31.925Q40.95 35.6 38.25 38.3Q35.55 41 31.9 42.525Q28.25 44.05 24 44.05ZM29.4 34.25Q30.5 31.8 30.975 29.225Q31.45 26.65 31.45 24Q31.45 21.35 30.975 18.775Q30.5 16.2 29.4 13.8L26.7 14.85Q27.7 17 28.15 19.3Q28.6 21.6 28.6 24Q28.6 26.4 28.15 28.7Q27.7 31 26.7 33.2ZM22.95 31.45Q23.7 29.7 24.05 27.8Q24.4 25.9 24.4 24Q24.4 22.05 24.05 20.2Q23.7 18.35 22.95 16.55L20.2 17.5Q20.9 19.05 21.2 20.675Q21.5 22.3 21.5 24Q21.5 25.65 21.2 27.325Q20.9 29 20.2 30.5ZM16.2 28.65Q16.65 27.5 16.975 26.35Q17.3 25.2 17.3 24Q17.3 22.8 17 21.6Q16.7 20.4 16.15 19.35L13.45 20.3Q14 21.15 14.225 22.1Q14.45 23.05 14.45 24Q14.45 25 14.175 25.925Q13.9 26.85 13.45 27.75Z"/></svg>
